svg/outline/paypal.svg

<svg height="471" viewBox="0 0 750 471" width="750" xmlns="http://www.w3.org/2000/svg"><g fill="#393939"><path d="m52.8846154 28.2035928c-13.2762744 0-24.0384616 10.5226363-24.0384616 23.502994v367.5868262c0 12.980919 10.7617993 23.502994 24.0384616 23.502994h644.2307696c13.276088 0 24.038461-10.522454 24.038461-23.502994v-367.5868262c0-12.9799785-10.762761-23.502994-24.038461-23.502994zm0-28.2035928h644.2307696c29.206991 0 52.884615 23.1501941 52.884615 51.7065868v367.5868262c0 28.557063-23.677347 51.706587-52.884615 51.706587h-644.2307696c-29.2079531 0-52.8846154-23.149254-52.8846154-51.706587v-367.5868262c0-28.5566629 23.6769386-51.7065868 52.8846154-51.7065868z"/><g transform="translate(54 161)"><path d="m109.272795 8.45777679c-8.024045-5.51623215-18.4947593-8.28103572-31.4121432-8.28103572h-50.009125c-3.9599554 0-6.1477232 1.98045536-6.5633036 5.93754464l-20.31566963 127.52393729c-.21113393 1.252473.10222322 2.397947.93720536 3.439286.83020536 1.04325 1.87441071 1.562009 3.12497321 1.562009h23.75399996c4.1663125 0 6.4563036-1.975679 6.8766608-5.937545l5.6251428-34.3794819c.2054018-1.6661429.9381607-3.0208393 2.1887232-4.0640893 1.2496072-1.0413393 2.8125715-1.7225089 4.6879375-2.0349107 1.8753661-.3095357 3.6437322-.465259 5.3136965-.465259 1.6651875 0 3.6437321.1050893 5.9394553.3124018 2.2899911.2082679 3.7497768.3095357 4.3755357.3095357 17.9186786 0 31.9834465-5.0490625 42.1952591-15.1576964 10.207036-10.1048125 15.316286-24.1160803 15.316286-42.0395357 0-12.2925804-4.014411-21.2003304-12.034634-26.72516071zm-25.7850896 38.29071431c-1.0451608 7.2941518-3.7507322 12.0843125-8.1262679 14.3771696-4.3764911 2.2957232-10.6273929 3.437375-18.7527054 3.437375l-10.314991.3124018 5.3146518-33.4441875c.414625-2.2899911 1.768366-3.4364196 4.0621785-3.4364196h5.9404107c8.3307143 0 14.3771697 1.2008839 18.1279018 3.5930982 3.7488215 2.3979464 4.999384 7.452741 3.7488215 15.1605625z"/><path d="m637.025455.17674107h-23.12633c-2.298589 0-3.651375 1.14642857-4.064089 3.43928572l-20.316625 130.02315221-.313357.624803c0 1.047072.416535 2.032045 1.252473 2.970205.828294.936251 1.875366 1.405331 3.124018 1.405331h20.629982c3.954223 0 6.142946-1.975679 6.564259-5.937545l20.316625-127.83920514v-.31049107c-.000956-2.91670536-1.359473-4.37553572-4.066956-4.37553572z"/><path d="m357.599732 50.4963571c0-1.0394285-.419402-2.0310892-1.246741-2.9673392-.835937-.9372054-1.776009-1.4081965-2.813527-1.4081965h-24.068312c-2.296679 0-4.171089 1.0470715-5.626098 3.1249732l-33.130831 48.7614286-13.752366-46.8841518c-1.046116-3.3313303-3.336107-5.00225-6.875705-5.00225h-23.44542c-1.044205 0-1.981411.4700357-2.809705 1.4081965-.835938.93625-1.250563 1.928866-1.250563 2.9673392 0 .4203572 2.032045 6.564259 6.094224 18.441259 4.062178 11.879866 8.437714 24.6950268 13.126607 38.4483479 4.688893 13.750456 7.135562 21.047473 7.344785 21.875768-17.087518 23.339375-25.62841 35.842134-25.62841 37.506366 0 2.711304 1.352785 4.06409 4.063134 4.06409h24.067357c2.290946 0 4.165357-1.039429 5.626098-3.124018l79.70258-115.024045c.415581-.4136696.622893-1.1397411.622893-2.1877679z"/><path d="m581.704545 46.1208214h-23.756866c-2.918616 0-4.685072 3.4392857-5.30892 10.3159465-5.424518-8.3316697-15.31533-12.5037143-29.696321-12.5037143-15.001974 0-27.768411 5.6270535-38.286893 16.87925-10.524215 11.2521964-15.783456 24.4867589-15.783456 39.6960444 0 12.296402 3.593099 22.088813 10.78025 29.379143 7.189063 7.297973 16.826706 10.939795 28.91484 10.939795 6.041678 0 12.188446-1.252473 18.439348-3.750732 6.250902-2.50017 11.143286-5.832456 14.692437-10.001634 0 .209223-.213044 1.145473-.626714 2.811616-.419402 1.669964-.624804 2.922437-.624804 3.750732 0 3.338018 1.350875 5.000339 4.06409 5.000339h21.568143c3.952312 0 6.248991-1.975678 6.871884-5.937544l12.817071-81.5779469c.205402-1.2505625-.107955-2.3950804-.938161-3.4383304-.836893-1.0403839-1.875366-1.5629643-3.125928-1.5629643zm-40.788974 61.5756336c-5.312741 5.209563-11.720321 7.812911-19.22083 7.812911-6.0455 0-10.937884-1.664232-14.690527-5.000339-3.752643-3.328464-5.628009-7.913223-5.628009-13.7523663 0-7.7049553 2.605259-14.2214464 7.814822-19.5341875 5.20383-5.3136964 11.669687-7.9705446 19.379419-7.9705446 5.82959 0 10.675161 1.7196428 14.533849 5.1560625 3.851044 3.4392857 5.782776 8.1807232 5.782776 14.2243125-.000955 7.5005089-2.657803 13.8574554-7.9715 19.0641514z"/><path d="m226.64033 46.1208214h-23.754955c-2.921482 0-4.688893 3.4392857-5.314652 10.3159465-5.626098-8.3316697-15.524553-12.5037143-29.693455-12.5037143-15.002929 0-27.767455 5.6270535-38.288804 16.87925-10.524214 11.2521964-15.783455 24.4867589-15.783455 39.6960444 0 12.296402 3.595009 22.088813 10.784071 29.379143 7.189063 7.297973 16.82384 10.939795 28.911018 10.939795 5.8315 0 11.877956-1.252473 18.127902-3.750732 6.250902-2.50017 11.252196-5.832456 15.002929-10.001634-.835938 2.500169-1.250563 4.688893-1.250563 6.562348 0 3.338018 1.353741 5.000339 4.063134 5.000339h21.566232c3.956134 0 6.250902-1.975678 6.876661-5.937544l12.814205-81.5779469c.205402-1.2505625-.106044-2.3950804-.937205-3.4383304-.834027-1.0403839-1.875366-1.5629643-3.123063-1.5629643zm-40.789928 61.7304016c-5.314652 5.111161-11.829232 7.658143-19.534188 7.658143-6.046455 0-10.891071-1.664232-14.534803-5.000339-3.648509-3.328464-5.470375-7.913223-5.470375-13.7523663 0-7.7049553 2.603348-14.2214464 7.814821-19.5341875 5.205741-5.3136964 11.665866-7.9705446 19.378464-7.9705446 5.8315 0 10.676117 1.7196428 14.534804 5.1560625 3.852 3.4392857 5.781821 8.1807232 5.781821 14.2243125 0 7.7097321-2.656848 14.1192234-7.970544 19.2189194z"/><path d="m464.337964 8.45777679c-8.023089-5.51623215-18.490937-8.28103572-31.411187-8.28103572h-49.694813c-4.170134 0-6.463946 1.98045536-6.877616 5.93754464l-20.314714 127.52393729c-.211134 1.252473.100312 2.397947.93625 3.439286.828295 1.04325 1.875366 1.562009 3.124973 1.562009h25.628411c2.50017 0 4.166312-1.352786 5.000339-4.062179l5.628009-36.2548479c.205402-1.6661429.93625-3.0208393 2.186813-4.0640893 1.250562-1.0413393 2.811616-1.7225089 4.688892-2.0349107 1.875367-.3095357 3.642777-.465259 5.314652-.465259 1.664232 0 3.643732.1050893 5.935634.3124018 2.292857.2082679 3.754554.3095357 4.375536.3095357 17.9225 0 31.985357-5.0490625 42.196214-15.1576964 10.209902-10.1048125 15.314375-24.1160803 15.314375-42.0395357.000955-12.2925804-4.0125-21.2003304-12.031768-26.72516071zm-32.035991 51.41732141c-4.584759 3.1249732-11.462375 4.6869822-20.628071 4.6869822l-10.003545.3124017 5.315607-33.4441875c.412715-2.289991 1.7655-3.4364196 4.062179-3.4364196h5.624187c4.582849 0 8.228491.2082679 10.941706.6238482 2.705571.4194018 5.312741 1.7186875 7.81291 3.9064554 2.502081 2.1877678 3.750733 5.3671964 3.750733 9.5335089 0 8.7529821-2.294768 14.6895714-6.875706 17.8174107z"/></g></g></svg>

<svg width="750" height="471" viewBox="0 0 750 471" version="1.1" xmlns="http://www.w3.org/2000/svg" xmlns:xlink="http://www.w3.org/1999/xlink">
    <!-- Generator: Sketch 48.2 (47327) - http://www.bohemiancoding.com/sketch -->
    <desc>Created with Sketch.</desc>
    <defs></defs>
    <g id="Page-1" stroke="none" stroke-width="1" fill="none" fill-rule="evenodd">
        <g id="paypal" fill="#393939" fill-rule="nonzero">
            <path d="M52.8846154,28.2035928 C39.608341,28.2035928 28.8461538,38.7262291 28.8461538,51.7065868 L28.8461538,419.293413 C28.8461538,432.274332 39.6079531,442.796407 52.8846154,442.796407 L697.115385,442.796407 C710.391473,442.796407 721.153846,432.273953 721.153846,419.293413 L721.153846,51.7065868 C721.153846,38.7266083 710.391085,28.2035928 697.115385,28.2035928 L52.8846154,28.2035928 Z M52.8846154,0 L697.115385,0 C726.322376,0 750,23.1501941 750,51.7065868 L750,419.293413 C750,447.850476 726.322653,471 697.115385,471 L52.8846154,471 C23.6766623,471 0,447.850746 0,419.293413 L0,51.7065868 C0,23.1499239 23.6769386,0 52.8846154,0 Z" id="Rectangle-1"></path>
            <g id="Group" transform="translate(54.000000, 161.000000)">
                <path d="M109.272795,8.45777679 C101.24875,2.94154464 90.7780357,0.176741071 77.8606518,0.176741071 L27.8515268,0.176741071 C23.8915714,0.176741071 21.7038036,2.15719643 21.2882232,6.11428571 L0.972553571,133.638223 C0.761419643,134.890696 1.07477679,136.03617 1.90975893,137.077509 C2.73996429,138.120759 3.78416964,138.639518 5.03473214,138.639518 L28.7887321,138.639518 C32.9550446,138.639518 35.2450357,136.663839 35.6653929,132.701973 L41.2905357,98.3224911 C41.4959375,96.6563482 42.2286964,95.3016518 43.4792589,94.2584018 C44.7288661,93.2170625 46.2918304,92.5358929 48.1671964,92.2234911 C50.0425625,91.9139554 51.8109286,91.7582321 53.4808929,91.7582321 C55.1460804,91.7582321 57.124625,91.8633214 59.4203482,92.0706339 C61.7103393,92.2789018 63.170125,92.3801696 63.7958839,92.3801696 C81.7145625,92.3801696 95.7793304,87.3311071 105.991143,77.2224732 C116.198179,67.1176607 121.307429,53.1063929 121.307429,35.1829375 C121.307429,22.8903571 117.293018,13.9826071 109.272795,8.45777679 Z M83.4877054,46.7484911 C82.4425446,54.0426429 79.7369732,58.8328036 75.3614375,61.1256607 C70.9849464,63.4213839 64.7340446,64.5630357 56.6087321,64.5630357 L46.2937411,64.8754375 L51.6083929,31.43125 C52.0230179,29.1412589 53.3767589,27.9948304 55.6705714,27.9948304 L61.6109821,27.9948304 C69.9416964,27.9948304 75.9881518,29.1957143 79.7388839,31.5879286 C83.4877054,33.985875 84.7382679,39.0406696 83.4877054,46.7484911 Z" id="Shape"></path>
                <path d="M637.025455,0.176741071 L613.899125,0.176741071 C611.600536,0.176741071 610.24775,1.32316964 609.835036,3.61602679 L589.518411,133.639179 L589.205054,134.263982 C589.205054,135.311054 589.621589,136.296027 590.457527,137.234187 C591.285821,138.170438 592.332893,138.639518 593.581545,138.639518 L614.211527,138.639518 C618.16575,138.639518 620.354473,136.663839 620.775786,132.701973 L641.092411,4.86276786 L641.092411,4.55227679 C641.091455,1.63557143 639.732938,0.176741071 637.025455,0.176741071 Z" id="Shape"></path>
                <path d="M357.599732,50.4963571 C357.599732,49.4569286 357.18033,48.4652679 356.352991,47.5290179 C355.517054,46.5918125 354.576982,46.1208214 353.539464,46.1208214 L329.471152,46.1208214 C327.174473,46.1208214 325.300063,47.1678929 323.845054,49.2457946 L290.714223,98.0072232 L276.961857,51.1230714 C275.915741,47.7917411 273.62575,46.1208214 270.086152,46.1208214 L246.640732,46.1208214 C245.596527,46.1208214 244.659321,46.5908571 243.831027,47.5290179 C242.995089,48.4652679 242.580464,49.4578839 242.580464,50.4963571 C242.580464,50.9167143 244.612509,57.0606161 248.674688,68.9376161 C252.736866,80.8174821 257.112402,93.6326429 261.801295,107.385964 C266.490188,121.13642 268.936857,128.433437 269.14608,129.261732 C252.058562,152.601107 243.51767,165.103866 243.51767,166.768098 C243.51767,169.479402 244.870455,170.832188 247.580804,170.832188 L271.648161,170.832188 C273.939107,170.832188 275.813518,169.792759 277.274259,167.70817 L356.976839,52.684125 C357.39242,52.2704554 357.599732,51.5443839 357.599732,50.4963571 Z" id="Shape"></path>
                <path d="M581.704545,46.1208214 L557.947679,46.1208214 C555.029063,46.1208214 553.262607,49.5601071 552.638759,56.4367679 C547.214241,48.1050982 537.323429,43.9330536 522.942438,43.9330536 C507.940464,43.9330536 495.174027,49.5601071 484.655545,60.8123036 C474.13133,72.0645 468.872089,85.2990625 468.872089,100.508348 C468.872089,112.80475 472.465188,122.597161 479.652339,129.887491 C486.841402,137.185464 496.479045,140.827286 508.567179,140.827286 C514.608857,140.827286 520.755625,139.574813 527.006527,137.076554 C533.257429,134.576384 538.149813,131.244098 541.698964,127.07492 C541.698964,127.284143 541.48592,128.220393 541.07225,129.886536 C540.652848,131.5565 540.447446,132.808973 540.447446,133.637268 C540.447446,136.975286 541.798321,138.637607 544.511536,138.637607 L566.079679,138.637607 C570.031991,138.637607 572.32867,136.661929 572.951563,132.700063 L585.768634,51.1221161 C585.974036,49.8715536 585.660679,48.7270357 584.830473,47.6837857 C583.99358,46.6434018 582.955107,46.1208214 581.704545,46.1208214 Z M540.915571,107.696455 C535.60283,112.906018 529.19525,115.509366 521.694741,115.509366 C515.649241,115.509366 510.756857,113.845134 507.004214,110.509027 C503.251571,107.180563 501.376205,102.595804 501.376205,96.7566607 C501.376205,89.0517054 503.981464,82.5352143 509.191027,77.2224732 C514.394857,71.9087768 520.860714,69.2519286 528.570446,69.2519286 C534.400036,69.2519286 539.245607,70.9715714 543.104295,74.4079911 C546.955339,77.8472768 548.887071,82.5887143 548.887071,88.6323036 C548.886116,96.1328125 546.229268,102.489759 540.915571,107.696455 Z" id="Shape"></path>
                <path d="M226.64033,46.1208214 L202.885375,46.1208214 C199.963893,46.1208214 198.196482,49.5601071 197.570723,56.4367679 C191.944625,48.1050982 182.04617,43.9330536 167.877268,43.9330536 C152.874339,43.9330536 140.109813,49.5601071 129.588464,60.8123036 C119.06425,72.0645 113.805009,85.2990625 113.805009,100.508348 C113.805009,112.80475 117.400018,122.597161 124.58908,129.887491 C131.778143,137.185464 141.41292,140.827286 153.500098,140.827286 C159.331598,140.827286 165.378054,139.574813 171.628,137.076554 C177.878902,134.576384 182.880196,131.244098 186.630929,127.07492 C185.794991,129.575089 185.380366,131.763813 185.380366,133.637268 C185.380366,136.975286 186.734107,138.637607 189.4435,138.637607 L211.009732,138.637607 C214.965866,138.637607 217.260634,136.661929 217.886393,132.700063 L230.700598,51.1221161 C230.906,49.8715536 230.594554,48.7270357 229.763393,47.6837857 C228.929366,46.6434018 227.888027,46.1208214 226.64033,46.1208214 Z M185.850402,107.851223 C180.53575,112.962384 174.02117,115.509366 166.316214,115.509366 C160.269759,115.509366 155.425143,113.845134 151.781411,110.509027 C148.132902,107.180563 146.311036,102.595804 146.311036,96.7566607 C146.311036,89.0517054 148.914384,82.5352143 154.125857,77.2224732 C159.331598,71.9087768 165.791723,69.2519286 173.504321,69.2519286 C179.335821,69.2519286 184.180438,70.9715714 188.039125,74.4079911 C191.891125,77.8472768 193.820946,82.5887143 193.820946,88.6323036 C193.820946,96.3420357 191.164098,102.751527 185.850402,107.851223 Z" id="Shape"></path>
                <path d="M464.337964,8.45777679 C456.314875,2.94154464 445.847027,0.176741071 432.926777,0.176741071 L383.231964,0.176741071 C379.06183,0.176741071 376.768018,2.15719643 376.354348,6.11428571 L356.039634,133.638223 C355.8285,134.890696 356.139946,136.03617 356.975884,137.077509 C357.804179,138.120759 358.85125,138.639518 360.100857,138.639518 L385.729268,138.639518 C388.229438,138.639518 389.89558,137.286732 390.729607,134.577339 L396.357616,98.3224911 C396.563018,96.6563482 397.293866,95.3016518 398.544429,94.2584018 C399.794991,93.2170625 401.356045,92.5358929 403.233321,92.2234911 C405.108688,91.9139554 406.876098,91.7582321 408.547973,91.7582321 C410.212205,91.7582321 412.191705,91.8633214 414.483607,92.0706339 C416.776464,92.2789018 418.238161,92.3801696 418.859143,92.3801696 C436.781643,92.3801696 450.8445,87.3311071 461.055357,77.2224732 C471.265259,67.1176607 476.369732,53.1063929 476.369732,35.1829375 C476.370687,22.8903571 472.357232,13.9826071 464.337964,8.45777679 Z M432.301973,59.8750982 C427.717214,63.0000714 420.839598,64.5620804 411.673902,64.5620804 L401.670357,64.8744821 L406.985964,31.4302946 C407.398679,29.1403036 408.751464,27.993875 411.048143,27.993875 L416.67233,27.993875 C421.255179,27.993875 424.900821,28.2021429 427.614036,28.6177232 C430.319607,29.037125 432.926777,30.3364107 435.426946,32.5241786 C437.929027,34.7119464 439.177679,37.891375 439.177679,42.0576875 C439.177679,50.8106696 436.882911,56.7472589 432.301973,59.8750982 Z" id="Shape"></path>
            </g>
        </g>
    </g>
</svg>
